X:86
T:The Rocky Road to Recovery
R:reel
C:Paul S. Cranford
O:Cape Breton Island
S:http://www.cranfordpub.com
D:currently unrecorded
B:currently unpublished in book form
Z:psc, (re-formatted,updated 9/17/04)
N:
H:                                                        copyrights Cranford Publications, SOCAN
L:1/8
M:C|
Q:333'
K:F#dor
F2 CF A,FCF|A,AcB AFFG|E2 CA, B,CEF|GBec BGEG|
F2 CA, CFCB,|A,AcB AFFd|ecfd ecBG|[1EcBG AFFE:|[2EcBG AFF||
|:g|f2 (cB) (ce)(Bc)|AGFE Ffcd|eB(gf) (gb)fd|[1ecBG Eece|
f2 (cB) (ce)(Bc)|AGFE Ffcd|ecfd ecBG|EcBG AFF:|
[2ecBG EFGE|(F2 CA, CFA,)F|AGFE Ffcd|ecfd ecBG|EcBG AFFE|]
